actions/symbolic/document-save-symbolic.svg

<?xml version="1.0" encoding="UTF-8" standalone="no"?>
<svg
   height="16"
   width="16"
   version="1.1"
   id="svg11"
   sodipodi:docname="document-save-symbolic.svg"
   inkscape:version="1.2.2 (b0a8486541, 2022-12-01)"
   xmlns:inkscape="http://www.inkscape.org/namespaces/inkscape"
   xmlns:sodipodi="http://sodipodi.sourceforge.net/DTD/sodipodi-0.dtd"
   xmlns="http://www.w3.org/2000/svg"
   xmlns:svg="http://www.w3.org/2000/svg">
  <sodipodi:namedview
     id="namedview29948"
     pagecolor="#ffffff"
     bordercolor="#000000"
     borderopacity="0.25"
     inkscape:showpageshadow="2"
     inkscape:pageopacity="0.0"
     inkscape:pagecheckerboard="0"
     inkscape:deskcolor="#d1d1d1"
     showgrid="false"
     inkscape:zoom="64"
     inkscape:cx="6.9140625"
     inkscape:cy="5.515625"
     inkscape:window-width="1278"
     inkscape:window-height="1005"
     inkscape:window-x="626"
     inkscape:window-y="13"
     inkscape:window-maximized="0"
     inkscape:current-layer="svg11" />
  <defs
     id="defs15" />
  <path
     style="fill:#555761;stroke:none;stroke-width:1;stroke-linecap:round;-inkscape-stroke:none;stop-color:#000000"
     d="m 11.499722,6.5664229 c -0.0026,0.09083 -0.03437,0.1774624 -0.09089,0.2489525 L 8.379936,10.340547 c -0.2075165,0.212604 -0.5512247,0.212604 -0.7587412,0 L 4.5923397,6.8153754 C 4.3596584,6.5263241 4.5984092,6.0119534 4.9717099,5.9999097 H 6.9997438 V 1.5018253 c 2.908e-4,-0.030223 0.00256,-0.059279 0.0079,-0.088212 0.037422,-0.2025225 0.1947949,-0.368202 0.4030819,-0.4136131 h 1.0837286 c 0.2650533,0 0.5058274,0.2398722 0.5058274,0.501825 v 4.4980847 h 2.0291793 c 0.280227,0.00803 0.483412,0.2985388 0.470261,0.566513 z"
     id="path30069"
     sodipodi:nodetypes="ccccccccscssccc" />
  <path
     style="fill:#555761;stroke:none;stroke-width:1;stroke-linecap:round;-inkscape-stroke:none;stop-color:#000000"
     d="m 14,12 c 0,1.10799 -0.89201,2 -2,2 H 4 C 2.892009,14 2,13.10799 2,12 V 4 C 2,2.892009 2.892009,2 4,2 H 6 V 3 H 4 C 3.446008,3 3,3.446009 3,4 v 8 c 0,0.553995 0.446008,1 1,1 h 8 c 0.553995,0 1,-0.446005 1,-1 V 4 C 13,3.446007 12.553993,3 12,3 H 10 V 2.000047 L 12,2 c 1.107991,-2.6e-5 2,0.89201 2,2 z"
     id="rect322"
     sodipodi:nodetypes="ssssssccssssssssccsss" />
</svg>

<svg
        xmlns='http://www.w3.org/2000/svg'
        xmlns:svg='http://www.w3.org/2000/svg'
        id='svg11'
        width='16'
        height='16'>
  <path
          id='path30069'
          fill='url(#gpa:foreground) #555761'
          fill-opacity='1'
          fill-rule='nonzero'
          stroke='none'
          stroke-width='1'
          stroke-linecap='round'
          d='M 11.4997 6.56642 C 11.4971 6.65725, 11.4654 6.74389, 11.4088 6.81538 L 8.37994 10.3405 C 8.17242 10.5532, 7.82871 10.5532, 7.62119 10.3405 L 4.59234 6.81538 C 4.35966 6.52632, 4.59841 6.01195, 4.97171 5.99991 L 6.99974 5.99991 L 6.99974 1.50183 C 7.00003 1.4716, 7.0023 1.44255, 7.00764 1.41361 C 7.04507 1.21109, 7.20244 1.04541, 7.41073 1 L 8.49445 1 C 8.75951 1, 9.00028 1.23987, 9.00028 1.50183 L 9.00028 5.99991 L 11.0295 5.99991 C 11.3097 6.00794, 11.5129 6.29845, 11.4997 6.56642 Z'
          class="foreground">
  </path>
  <path
          id='rect322'
          fill='url(#gpa:foreground) #555761'
          fill-opacity='1'
          fill-rule='nonzero'
          stroke='none'
          stroke-width='1'
          stroke-linecap='round'
          d='M 14 12 C 14 13.108, 13.108 14, 12 14 L 4 14 C 2.89201 14, 2 13.108, 2 12 L 2 4 C 2 2.89201, 2.89201 2, 4 2 L 6 2 L 6 3 L 4 3 C 3.44601 3, 3 3.44601, 3 4 L 3 12 C 3 12.554, 3.44601 13, 4 13 L 12 13 C 12.554 13, 13 12.554, 13 12 L 13 4 C 13 3.44601, 12.554 3, 12 3 L 10 3 L 10 2.00005 L 12 2 C 13.108 1.99997, 14 2.89201, 14 4 Z'
          class="foreground">
  </path>
</svg>
